Newaita-dark/apps/64/com.github.bartzaalberg.bookmark-manager.svg

<svg height="64" viewBox="0 0 64 64" width="64" xmlns="http://www.w3.org/2000/svg" xmlns:xlink="http://www.w3.org/1999/xlink"><linearGradient id="a" gradientUnits="userSpaceOnUse" x1="31.75304" x2="31.75304" y1="56.067872" y2="58.71396000006"><stop offset="0" stop-opacity=".27451"/><stop offset="1" stop-opacity="0"/></linearGradient><linearGradient id="b"><stop offset="0" stop-opacity=".313726"/><stop offset=".222222" stop-opacity=".27451"/><stop offset="1" stop-opacity="0"/></linearGradient><radialGradient id="c" cx="450.908936" cy="189.579361" gradientTransform="matrix(.00000035 -.156265 -.281277 -.0000002 100.292171 127.190665)" gradientUnits="userSpaceOnUse" r="21.166656" xlink:href="#b"/><radialGradient id="d" cx="450.908936" cy="189.579361" gradientTransform="matrix(-.00000035 .156265 .281277 .0000002 -36.786098 -15.054961)" gradientUnits="userSpaceOnUse" r="21.166656" xlink:href="#b"/><radialGradient id="e" cx="450.908936" cy="189.579361" gradientTransform="matrix(-.00000035 -.156265 .281277 -.0000002 -36.786098 127.190665)" gradientUnits="userSpaceOnUse" r="21.166656" xlink:href="#b"/><radialGradient id="f" cx="450.908936" cy="189.579361" gradientTransform="matrix(.00000035 .156265 -.281277 .0000002 100.292167 -15.054959)" gradientUnits="userSpaceOnUse" r="21.166656" xlink:href="#b"/><linearGradient id="g"><stop offset="0" stop-color="#424242"/><stop offset="1" stop-color="#616161"/></linearGradient><linearGradient id="h" gradientTransform="matrix(.150699 0 0 .434824 -11.708026 67.282696)" gradientUnits="userSpaceOnUse" x1="306.916656" x2="305.954559" xlink:href="#g" y1="-25.791676" y2="-141.414581"/><linearGradient id="i" gradientTransform="matrix(4.556143 0 0 13.146184 -353.972656 2034.180176)" gradientUnits="userSpaceOnUse" x1="165.484848" x2="165.484848" xlink:href="#g" y1="-25.791672" y2="-141.414581"/><linearGradient id="j"><stop offset="0" stop-color="#42a5f5"/><stop offset="1" stop-color="#64b5f6"/></linearGradient><linearGradient id="k" gradientUnits="userSpaceOnUse" x1="275.166301" x2="275.166301" xlink:href="#j" y1="233.49969318561" y2="-168.66647475188"/><linearGradient id="l" gradientUnits="userSpaceOnUse" x1="370.416376" x2="370.416376" xlink:href="#j" y1="80.0412949526" y2="-168.66671710991"/><linearGradient id="m" gradientUnits="userSpaceOnUse" x1="30.43000500006" x2="30.43000500006" y1="56.067868" y2="5.79221000013"><stop offset="0" stop-color="#bdbdbd"/><stop offset="1" stop-color="#e0e0e0"/></linearGradient><linearGradient id="n" gradientUnits="userSpaceOnUse" x1="13.23043500013" x2="13.23043500013" xlink:href="#g" y1="21.007243375" y2="18.36115625002"/><linearGradient id="o" gradientUnits="userSpaceOnUse" x1="13.23043500013" x2="13.23043500013" xlink:href="#g" y1="42.837455375" y2="40.19136825002"/><path d="m15.875 56.066406h31.753906v2.648438h-31.753906zm0 0" fill="url(#a)"/><path d="m47.628906 56.066406h5.292969v-2.644531h-5.292969zm0 0" fill="url(#c)"/><path d="m15.875 56.066406h-5.289062v2.648438h5.289062zm0 0" fill="url(#d)"/><path d="m15.875 56.066406h-5.289062v-2.644531h5.289062zm0 0" fill="url(#e)"/><path d="m47.628906 56.066406h5.292969v2.648438h-5.292969zm0 0" fill="url(#f)"/><path d="m13.230469 5.792969h37.046875c1.460937 0 2.644531 1.183593 2.644531 2.644531v44.984375c0 1.460937-1.183594 2.644531-2.644531 2.644531h-37.046875c-1.460938 0-2.644531-1.183594-2.644531-2.644531v-44.984375c0-1.460938 1.183593-2.644531 2.644531-2.644531zm0 0" fill="url(#h)"/><path d="m400.001193 175.140764c-44.287112 0-79.952999 35.665888-79.952999 79.952999v1360.027676c0 44.287112 35.665887 79.952999 79.952999 79.952999h119.988548v-1519.933674zm0 0" fill="url(#i)" stroke="#212121" stroke-linecap="round" stroke-width="11.338583" transform="scale(.0330761)"/><path d="m13.230469 56.066406c-1.464844 0-2.644531-1.179687-2.644531-2.644531v-.332031c0 1.46875 1.179687 2.648437 2.644531 2.648437h37.046875c1.464844 0 2.644531-1.179687 2.644531-2.648437v.332031c0 1.464844-1.179687 2.644531-2.644531 2.644531zm0 0" fill-opacity=".196078"/><path d="m13.230469 5.792969c-1.464844 0-2.644531 1.179687-2.644531 2.644531v.332031c0-1.464843 1.179687-2.648437 2.644531-2.648437h37.046875c1.464844 0 2.644531 1.183594 2.644531 2.648437v-.332031c0-1.464844-1.179687-2.644531-2.644531-2.644531zm0 0" fill="#e6e6e6" fill-opacity=".392157"/><path d="m13.230469 5.605469c-1.566407 0-2.832031 1.265625-2.832031 2.832031v44.984375c0 1.566406 1.265624 2.832031 2.832031 2.832031h37.046875c1.566406 0 2.832031-1.265625 2.832031-2.832031v-44.984375c0-1.566406-1.265625-2.832031-2.832031-2.832031zm0 .375h37.046875c1.363281 0 2.457031 1.09375 2.457031 2.457031v44.984375c0 1.367187-1.09375 2.457031-2.457031 2.457031h-37.046875c-1.367188 0-2.457031-1.089844-2.457031-2.457031v-44.984375c0-1.363281 1.089843-2.457031 2.457031-2.457031zm0 0" fill="#212121"/><path d="m148.17335-147.506445v359.840637h243.414255c5.874439 0 10.592739-4.7183 10.592739-10.592739v-338.65516c0-5.874439-4.7183-10.592738-10.592739-10.592738zm0 0" style="fill:none;stroke-width:8;stroke-linecap:round;stroke-linejoin:round;stroke-dasharray:16.000002 16.000002;stroke-dashoffset:7.200001;stroke:url(#k)" transform="matrix(.125012 0 0 .125012 0 26.877566)"/><path d="m349.247898-168.660675v254.006993c15.873485-42.339706 26.466223-42.339706 42.339707 0v-254.006993zm0 0" fill="url(#l)" stroke="#212121" stroke-linecap="round" stroke-linejoin="round" stroke-width="3" transform="matrix(.125012 0 0 .125012 0 26.877566)"/><path d="m24.589844 13.410156c-.519532-.519531-1.351563-.519531-1.871094 0-.519531.519532-.519531 1.351563 0 1.871094l3.742188 3.742188-3.742188 3.742187c-.519531.515625-.519531 1.351563 0 1.871094.519531.515625 1.351562.515625 1.871094 0l4.675781-4.679688c.035156-.03125.066406-.066406.09375-.097656.425781-.523437.394531-1.285156-.09375-1.773437zm0 0" fill="url(#m)"/><path d="m23.652344 13.019531c-.335938 0-.675782.128907-.933594.390625-.34375.34375-.457031.824219-.347656 1.261719.058594-.222656.171875-.433594.347656-.609375.519531-.519531 1.351562-.519531 1.871094 0l4.675781 4.675781c.175781.175781.292969.386719.347656.609375.113281-.4375-.003906-.917968-.347656-1.261718l-4.675781-4.675782c-.257813-.261718-.597656-.390625-.9375-.390625zm2.484375 6.328125-3.417969 3.417969c-.34375.34375-.457031.824219-.347656 1.261719.058594-.222656.171875-.4375.347656-.609375l3.742188-3.742188zm0 0" fill="#fff"/><path d="m22.425781 14.839844c-.191406.480468-.09375 1.042968.292969 1.433594l3.246094 3.246093.496094-.496093-3.742188-3.742188c-.128906-.128906-.226562-.28125-.292969-.441406zm7.132813 4.679687c-.046875.121094-.113282.234375-.199219.339844-.027344.03125-.058594.066406-.09375.097656l-4.675781 4.679688c-.519532.515625-1.351563.515625-1.871094 0-.128906-.128907-.226562-.28125-.292969-.441407-.191406.480469-.09375 1.042969.292969 1.433594.519531.515625 1.351562.515625 1.871094 0l4.675781-4.679687c.035156-.03125.066406-.066407.09375-.097657.3125-.382812.378906-.894531.199219-1.332031zm0 0" fill-opacity=".235294"/><path d="m196.699966-107.728994c-4.155853-4.155853-10.811467-4.155853-14.967321 0-4.155853 4.155853-4.155853 10.811468 0 14.967321l29.934642 29.934641-29.934642 29.934642c-4.155853 4.124606-4.155853 10.811467 0 14.96732 4.155854 4.124606 10.811468 4.124606 14.967321 0l37.402678-37.433925c.281223-.249976.5312-.531199.749929-.781175 3.405924-4.187101 3.155948-10.280269-.749929-14.186146zm0 0" fill="none" stroke="#212121" stroke-linecap="round" stroke-width="3" transform="matrix(.125012 0 0 .125012 0 26.877566)"/><path d="m13.230469 5.605469c-1.566407 0-2.832031 1.265625-2.832031 2.832031v44.984375c0 1.566406 1.265624 2.832031 2.832031 2.832031h37.046875c1.566406 0 2.832031-1.265625 2.832031-2.832031v-44.984375c0-1.566406-1.265625-2.832031-2.832031-2.832031zm0 .375h37.046875c1.363281 0 2.457031 1.09375 2.457031 2.457031v44.984375c0 1.367187-1.09375 2.457031-2.457031 2.457031h-37.046875c-1.367188 0-2.457031-1.089844-2.457031-2.457031v-44.984375c0-1.363281 1.089843-2.457031 2.457031-2.457031zm0 0" fill="#212121"/><path d="m10.585938 18.359375h6.613281v2.648437h-6.613281zm0 0" fill="url(#n)"/><path d="m10.585938 21.007812v.992188h6.613281v-.992188zm0 0" fill-opacity=".235294"/><path d="m10.585938 18.359375v.664063h6.613281v-.664063zm0 0" fill="#fff" fill-opacity=".392157"/><path d="m84.679434-20.514257h52.901198v21.185477h-52.901198zm0 0" fill="none" stroke="#212121" stroke-linecap="round" stroke-linejoin="round" stroke-width="3" transform="matrix(.125012 0 0 .125012 -.000003 20.923902)"/><path d="m10.585938 40.191406h6.613281v2.644532h-6.613281zm0 0" fill="url(#o)"/><path d="m10.585938 42.835938v.992187h6.613281v-.992187zm0 0" fill-opacity=".235294"/><path d="m10.585938 40.191406v.660156h6.613281v-.660156zm0 0" fill="#fff" fill-opacity=".392157"/><path d="m84.679434-20.499704h52.901198v21.15423h-52.901198zm0 0" fill="none" stroke="#212121" stroke-linecap="round" stroke-linejoin="round" stroke-width="3" transform="matrix(.125012 0 0 .125012 -.000003 42.754114)"/></svg>

<?xml version="1.0" encoding="UTF-8"?>
<svg xmlns="http://www.w3.org/2000/svg" xmlns:xlink="http://www.w3.org/1999/xlink" width="64px" height="64px" viewBox="0 0 64 64" version="1.1">
<defs>
<linearGradient id="linear0" gradientUnits="userSpaceOnUse" x1="254" y1="233.5" x2="254" y2="254.666672" gradientTransform="matrix(0.125012,0,0,0.125012,-0.00000763012,26.87757)">
<stop offset="0" style="stop-color:rgb(0%,0%,0%);stop-opacity:0.27451;"/>
<stop offset="1" style="stop-color:rgb(0%,0%,0%);stop-opacity:0;"/>
</linearGradient>
<radialGradient id="radial0" gradientUnits="userSpaceOnUse" cx="450.908936" cy="189.579361" fx="450.908936" fy="189.579361" r="21.166656" gradientTransform="matrix(0.000000348341,-0.156265,-0.281277,-0.000000203077,100.292171,127.190665)">
<stop offset="0" style="stop-color:rgb(0%,0%,0%);stop-opacity:0.313726;"/>
<stop offset="0.222222" style="stop-color:rgb(0%,0%,0%);stop-opacity:0.27451;"/>
<stop offset="1" style="stop-color:rgb(0%,0%,0%);stop-opacity:0;"/>
</radialGradient>
<radialGradient id="radial1" gradientUnits="userSpaceOnUse" cx="450.908936" cy="189.579361" fx="450.908936" fy="189.579361" r="21.166656" gradientTransform="matrix(-0.000000348341,0.156265,0.281277,0.000000203077,-36.786098,-15.054961)">
<stop offset="0" style="stop-color:rgb(0%,0%,0%);stop-opacity:0.313726;"/>
<stop offset="0.222222" style="stop-color:rgb(0%,0%,0%);stop-opacity:0.27451;"/>
<stop offset="1" style="stop-color:rgb(0%,0%,0%);stop-opacity:0;"/>
</radialGradient>
<radialGradient id="radial2" gradientUnits="userSpaceOnUse" cx="450.908936" cy="189.579361" fx="450.908936" fy="189.579361" r="21.166656" gradientTransform="matrix(-0.000000348341,-0.156265,0.281277,-0.000000203077,-36.786098,127.190665)">
<stop offset="0" style="stop-color:rgb(0%,0%,0%);stop-opacity:0.313726;"/>
<stop offset="0.222222" style="stop-color:rgb(0%,0%,0%);stop-opacity:0.27451;"/>
<stop offset="1" style="stop-color:rgb(0%,0%,0%);stop-opacity:0;"/>
</radialGradient>
<radialGradient id="radial3" gradientUnits="userSpaceOnUse" cx="450.908936" cy="189.579361" fx="450.908936" fy="189.579361" r="21.166656" gradientTransform="matrix(0.000000348341,0.156265,-0.281277,0.000000203077,100.292167,-15.054959)">
<stop offset="0" style="stop-color:rgb(0%,0%,0%);stop-opacity:0.313726;"/>
<stop offset="0.222222" style="stop-color:rgb(0%,0%,0%);stop-opacity:0.27451;"/>
<stop offset="1" style="stop-color:rgb(0%,0%,0%);stop-opacity:0;"/>
</radialGradient>
<linearGradient id="linear1" gradientUnits="userSpaceOnUse" x1="306.916656" y1="-25.791676" x2="305.954559" y2="-141.414581" gradientTransform="matrix(0.150699,0,0,0.434824,-11.708026,67.282696)">
<stop offset="0" style="stop-color:rgb(25.882354%,25.882354%,25.882354%);stop-opacity:1;"/>
<stop offset="1" style="stop-color:rgb(38.039216%,38.039216%,38.039216%);stop-opacity:1;"/>
</linearGradient>
<linearGradient id="linear2" gradientUnits="userSpaceOnUse" x1="165.484848" y1="-25.791672" x2="165.484848" y2="-141.414581" gradientTransform="matrix(4.556143,0,0,13.146184,-353.972656,2034.180176)">
<stop offset="0" style="stop-color:rgb(25.882354%,25.882354%,25.882354%);stop-opacity:1;"/>
<stop offset="1" style="stop-color:rgb(38.039216%,38.039216%,38.039216%);stop-opacity:1;"/>
</linearGradient>
<linearGradient id="linear3" gradientUnits="userSpaceOnUse" x1="1040" y1="1695.118164" x2="1040" y2="175.118134" gradientTransform="matrix(0.264583,0,0,0.264583,-0.0000193333,-214.999756)">
<stop offset="0" style="stop-color:rgb(25.882354%,64.705884%,96.078432%);stop-opacity:1;"/>
<stop offset="1" style="stop-color:rgb(39.215687%,70.980394%,96.470588%);stop-opacity:1;"/>
</linearGradient>
<linearGradient id="linear4" gradientUnits="userSpaceOnUse" x1="840" y1="1115.117188" x2="840" y2="175.117218" gradientTransform="matrix(0.264583,0,0,0.264583,148.166656,-214.999756)">
<stop offset="0" style="stop-color:rgb(25.882354%,64.705884%,96.078432%);stop-opacity:1;"/>
<stop offset="1" style="stop-color:rgb(39.215687%,70.980394%,96.470588%);stop-opacity:1;"/>
</linearGradient>
<linearGradient id="linear5" gradientUnits="userSpaceOnUse" x1="243.416672" y1="233.5" x2="243.416672" y2="-168.666656" gradientTransform="matrix(0.125012,0,0,0.125012,0,26.877566)">
<stop offset="0" style="stop-color:rgb(74.117649%,74.117649%,74.117649%);stop-opacity:1;"/>
<stop offset="1" style="stop-color:rgb(87.843138%,87.843138%,87.843138%);stop-opacity:1;"/>
</linearGradient>
<linearGradient id="linear6" gradientUnits="userSpaceOnUse" x1="105.833344" y1="0.666667" x2="105.833344" y2="-20.499998" gradientTransform="matrix(0.125012,0,0,0.125012,-0.00000254191,20.923902)">
<stop offset="0" style="stop-color:rgb(25.882354%,25.882354%,25.882354%);stop-opacity:1;"/>
<stop offset="1" style="stop-color:rgb(38.039216%,38.039216%,38.039216%);stop-opacity:1;"/>
</linearGradient>
<linearGradient id="linear7" gradientUnits="userSpaceOnUse" x1="105.833344" y1="0.666667" x2="105.833344" y2="-20.499998" gradientTransform="matrix(0.125012,0,0,0.125012,-0.00000254191,42.754114)">
<stop offset="0" style="stop-color:rgb(25.882354%,25.882354%,25.882354%);stop-opacity:1;"/>
<stop offset="1" style="stop-color:rgb(38.039216%,38.039216%,38.039216%);stop-opacity:1;"/>
</linearGradient>
</defs>
<g id="surface1">
<path style=" stroke:none;fill-rule:nonzero;fill:url(#linear0);" d="M 15.875 56.066406 L 47.628906 56.066406 L 47.628906 58.714844 L 15.875 58.714844 Z M 15.875 56.066406 "/>
<path style=" stroke:none;fill-rule:nonzero;fill:url(#radial0);" d="M 47.628906 56.066406 L 52.921875 56.066406 L 52.921875 53.421875 L 47.628906 53.421875 Z M 47.628906 56.066406 "/>
<path style=" stroke:none;fill-rule:nonzero;fill:url(#radial1);" d="M 15.875 56.066406 L 10.585938 56.066406 L 10.585938 58.714844 L 15.875 58.714844 Z M 15.875 56.066406 "/>
<path style=" stroke:none;fill-rule:nonzero;fill:url(#radial2);" d="M 15.875 56.066406 L 10.585938 56.066406 L 10.585938 53.421875 L 15.875 53.421875 Z M 15.875 56.066406 "/>
<path style=" stroke:none;fill-rule:nonzero;fill:url(#radial3);" d="M 47.628906 56.066406 L 52.921875 56.066406 L 52.921875 58.714844 L 47.628906 58.714844 Z M 47.628906 56.066406 "/>
<path style=" stroke:none;fill-rule:nonzero;fill:url(#linear1);" d="M 13.230469 5.792969 L 50.277344 5.792969 C 51.738281 5.792969 52.921875 6.976562 52.921875 8.4375 L 52.921875 53.421875 C 52.921875 54.882812 51.738281 56.066406 50.277344 56.066406 L 13.230469 56.066406 C 11.769531 56.066406 10.585938 54.882812 10.585938 53.421875 L 10.585938 8.4375 C 10.585938 6.976562 11.769531 5.792969 13.230469 5.792969 Z M 13.230469 5.792969 "/>
<path style="fill-rule:nonzero;fill:url(#linear2);stroke-width:11.338583;stroke-linecap:round;stroke-linejoin:miter;stroke:rgb(12.941177%,12.941177%,12.941177%);stroke-opacity:1;stroke-miterlimit:4;" d="M 400.001193 175.140764 C 355.714081 175.140764 320.048194 210.806652 320.048194 255.093763 L 320.048194 1615.121439 C 320.048194 1659.408551 355.714081 1695.074438 400.001193 1695.074438 L 519.989741 1695.074438 L 519.989741 175.140764 Z M 400.001193 175.140764 " transform="matrix(0.0330761,0,0,0.0330761,0,0)"/>
<path style=" stroke:none;fill-rule:nonzero;fill:rgb(0%,0%,0%);fill-opacity:0.196078;" d="M 13.230469 56.066406 C 11.765625 56.066406 10.585938 54.886719 10.585938 53.421875 L 10.585938 53.089844 C 10.585938 54.558594 11.765625 55.738281 13.230469 55.738281 L 50.277344 55.738281 C 51.742188 55.738281 52.921875 54.558594 52.921875 53.089844 L 52.921875 53.421875 C 52.921875 54.886719 51.742188 56.066406 50.277344 56.066406 Z M 13.230469 56.066406 "/>
<path style=" stroke:none;fill-rule:nonzero;fill:rgb(90.196079%,90.196079%,90.196079%);fill-opacity:0.392157;" d="M 13.230469 5.792969 C 11.765625 5.792969 10.585938 6.972656 10.585938 8.4375 L 10.585938 8.769531 C 10.585938 7.304688 11.765625 6.121094 13.230469 6.121094 L 50.277344 6.121094 C 51.742188 6.121094 52.921875 7.304688 52.921875 8.769531 L 52.921875 8.4375 C 52.921875 6.972656 51.742188 5.792969 50.277344 5.792969 Z M 13.230469 5.792969 "/>
<path style=" stroke:none;fill-rule:nonzero;fill:rgb(12.941177%,12.941177%,12.941177%);fill-opacity:1;" d="M 13.230469 5.605469 C 11.664062 5.605469 10.398438 6.871094 10.398438 8.4375 L 10.398438 53.421875 C 10.398438 54.988281 11.664062 56.253906 13.230469 56.253906 L 50.277344 56.253906 C 51.84375 56.253906 53.109375 54.988281 53.109375 53.421875 L 53.109375 8.4375 C 53.109375 6.871094 51.84375 5.605469 50.277344 5.605469 Z M 13.230469 5.980469 L 50.277344 5.980469 C 51.640625 5.980469 52.734375 7.074219 52.734375 8.4375 L 52.734375 53.421875 C 52.734375 54.789062 51.640625 55.878906 50.277344 55.878906 L 13.230469 55.878906 C 11.863281 55.878906 10.773438 54.789062 10.773438 53.421875 L 10.773438 8.4375 C 10.773438 7.074219 11.863281 5.980469 13.230469 5.980469 Z M 13.230469 5.980469 "/>
<path style="fill:none;stroke-width:8;stroke-linecap:round;stroke-linejoin:round;stroke:url(#linear3);stroke-dasharray:16.000002,16.000002;stroke-dashoffset:7.200001;stroke-miterlimit:4;" d="M 148.17335 -147.506445 L 148.17335 212.334192 L 391.587605 212.334192 C 397.462044 212.334192 402.180344 207.615892 402.180344 201.741453 L 402.180344 -136.913707 C 402.180344 -142.788146 397.462044 -147.506445 391.587605 -147.506445 Z M 148.17335 -147.506445 " transform="matrix(0.125012,0,0,0.125012,0,26.877566)"/>
<path style="fill-rule:nonzero;fill:url(#linear4);stroke-width:3;stroke-linecap:round;stroke-linejoin:round;stroke:rgb(12.941177%,12.941177%,12.941177%);stroke-opacity:1;stroke-miterlimit:4;" d="M 349.247898 -168.660675 L 349.247898 85.346318 C 365.121383 43.006612 375.714121 43.006612 391.587605 85.346318 L 391.587605 -168.660675 Z M 349.247898 -168.660675 " transform="matrix(0.125012,0,0,0.125012,0,26.877566)"/>
<path style=" stroke:none;fill-rule:nonzero;fill:url(#linear5);" d="M 24.589844 13.410156 C 24.070312 12.890625 23.238281 12.890625 22.71875 13.410156 C 22.199219 13.929688 22.199219 14.761719 22.71875 15.28125 L 26.460938 19.023438 L 22.71875 22.765625 C 22.199219 23.28125 22.199219 24.117188 22.71875 24.636719 C 23.238281 25.152344 24.070312 25.152344 24.589844 24.636719 L 29.265625 19.957031 C 29.300781 19.925781 29.332031 19.890625 29.359375 19.859375 C 29.785156 19.335938 29.753906 18.574219 29.265625 18.085938 Z M 24.589844 13.410156 "/>
<path style=" stroke:none;fill-rule:nonzero;fill:rgb(100%,100%,100%);fill-opacity:1;" d="M 23.652344 13.019531 C 23.316406 13.019531 22.976562 13.148438 22.71875 13.410156 C 22.375 13.753906 22.261719 14.234375 22.371094 14.671875 C 22.429688 14.449219 22.542969 14.238281 22.71875 14.0625 C 23.238281 13.542969 24.070312 13.542969 24.589844 14.0625 L 29.265625 18.738281 C 29.441406 18.914062 29.558594 19.125 29.613281 19.347656 C 29.726562 18.910156 29.609375 18.429688 29.265625 18.085938 L 24.589844 13.410156 C 24.332031 13.148438 23.992188 13.019531 23.652344 13.019531 Z M 26.136719 19.347656 L 22.71875 22.765625 C 22.375 23.109375 22.261719 23.589844 22.371094 24.027344 C 22.429688 23.804688 22.542969 23.589844 22.71875 23.417969 L 26.460938 19.675781 Z M 26.136719 19.347656 "/>
<path style=" stroke:none;fill-rule:nonzero;fill:rgb(0%,0%,0%);fill-opacity:0.235294;" d="M 22.425781 14.839844 C 22.234375 15.320312 22.332031 15.882812 22.71875 16.273438 L 25.964844 19.519531 L 26.460938 19.023438 L 22.71875 15.28125 C 22.589844 15.152344 22.492188 15 22.425781 14.839844 Z M 29.558594 19.519531 C 29.511719 19.640625 29.445312 19.753906 29.359375 19.859375 C 29.332031 19.890625 29.300781 19.925781 29.265625 19.957031 L 24.589844 24.636719 C 24.070312 25.152344 23.238281 25.152344 22.71875 24.636719 C 22.589844 24.507812 22.492188 24.355469 22.425781 24.195312 C 22.234375 24.675781 22.332031 25.238281 22.71875 25.628906 C 23.238281 26.144531 24.070312 26.144531 24.589844 25.628906 L 29.265625 20.949219 C 29.300781 20.917969 29.332031 20.882812 29.359375 20.851562 C 29.671875 20.46875 29.738281 19.957031 29.558594 19.519531 Z M 29.558594 19.519531 "/>
<path style="fill:none;stroke-width:3;stroke-linecap:round;stroke-linejoin:miter;stroke:rgb(12.941177%,12.941177%,12.941177%);stroke-opacity:1;stroke-miterlimit:4;" d="M 196.699966 -107.728994 C 192.544113 -111.884847 185.888499 -111.884847 181.732645 -107.728994 C 177.576792 -103.573141 177.576792 -96.917526 181.732645 -92.761673 L 211.667287 -62.827032 L 181.732645 -32.89239 C 177.576792 -28.767784 177.576792 -22.080923 181.732645 -17.92507 C 185.888499 -13.800464 192.544113 -13.800464 196.699966 -17.92507 L 234.102644 -55.358995 C 234.383867 -55.608971 234.633844 -55.890194 234.852573 -56.14017 C 238.258497 -60.327271 238.008521 -66.420439 234.102644 -70.326316 Z M 196.699966 -107.728994 " transform="matrix(0.125012,0,0,0.125012,0,26.877566)"/>
<path style=" stroke:none;fill-rule:nonzero;fill:rgb(12.941177%,12.941177%,12.941177%);fill-opacity:1;" d="M 13.230469 5.605469 C 11.664062 5.605469 10.398438 6.871094 10.398438 8.4375 L 10.398438 53.421875 C 10.398438 54.988281 11.664062 56.253906 13.230469 56.253906 L 50.277344 56.253906 C 51.84375 56.253906 53.109375 54.988281 53.109375 53.421875 L 53.109375 8.4375 C 53.109375 6.871094 51.84375 5.605469 50.277344 5.605469 Z M 13.230469 5.980469 L 50.277344 5.980469 C 51.640625 5.980469 52.734375 7.074219 52.734375 8.4375 L 52.734375 53.421875 C 52.734375 54.789062 51.640625 55.878906 50.277344 55.878906 L 13.230469 55.878906 C 11.863281 55.878906 10.773438 54.789062 10.773438 53.421875 L 10.773438 8.4375 C 10.773438 7.074219 11.863281 5.980469 13.230469 5.980469 Z M 13.230469 5.980469 "/>
<path style=" stroke:none;fill-rule:nonzero;fill:url(#linear6);" d="M 10.585938 18.359375 L 17.199219 18.359375 L 17.199219 21.007812 L 10.585938 21.007812 Z M 10.585938 18.359375 "/>
<path style=" stroke:none;fill-rule:nonzero;fill:rgb(0%,0%,0%);fill-opacity:0.235294;" d="M 10.585938 21.007812 L 10.585938 22 L 17.199219 22 L 17.199219 21.007812 Z M 10.585938 21.007812 "/>
<path style=" stroke:none;fill-rule:nonzero;fill:rgb(100%,100%,100%);fill-opacity:0.392157;" d="M 10.585938 18.359375 L 10.585938 19.023438 L 17.199219 19.023438 L 17.199219 18.359375 Z M 10.585938 18.359375 "/>
<path style="fill:none;stroke-width:3;stroke-linecap:round;stroke-linejoin:round;stroke:rgb(12.941177%,12.941177%,12.941177%);stroke-opacity:1;stroke-miterlimit:4;" d="M 84.679434 -20.514257 L 137.580632 -20.514257 L 137.580632 0.67122 L 84.679434 0.67122 Z M 84.679434 -20.514257 " transform="matrix(0.125012,0,0,0.125012,-0.00000254191,20.923902)"/>
<path style=" stroke:none;fill-rule:nonzero;fill:url(#linear7);" d="M 10.585938 40.191406 L 17.199219 40.191406 L 17.199219 42.835938 L 10.585938 42.835938 Z M 10.585938 40.191406 "/>
<path style=" stroke:none;fill-rule:nonzero;fill:rgb(0%,0%,0%);fill-opacity:0.235294;" d="M 10.585938 42.835938 L 10.585938 43.828125 L 17.199219 43.828125 L 17.199219 42.835938 Z M 10.585938 42.835938 "/>
<path style=" stroke:none;fill-rule:nonzero;fill:rgb(100%,100%,100%);fill-opacity:0.392157;" d="M 10.585938 40.191406 L 10.585938 40.851562 L 17.199219 40.851562 L 17.199219 40.191406 Z M 10.585938 40.191406 "/>
<path style="fill:none;stroke-width:3;stroke-linecap:round;stroke-linejoin:round;stroke:rgb(12.941177%,12.941177%,12.941177%);stroke-opacity:1;stroke-miterlimit:4;" d="M 84.679434 -20.499704 L 137.580632 -20.499704 L 137.580632 0.654526 L 84.679434 0.654526 Z M 84.679434 -20.499704 " transform="matrix(0.125012,0,0,0.125012,-0.00000254191,42.754114)"/>
</g>
</svg>
